X: 674
T: Xiuehua ba
%%abc-version 2.0
%%abcx-abcm2ps-target-version 5.9.1 (29 Sep 2008)
%%abc-creator hum2abc beta
%%abcx-conversion-date 2013/10/02 07:52:30
%%abc-edited-by Helmut Schaffrath
%%humdrum-veritas 3435927680
%%humdrum-veritas-data 3682618120
%%continueall 1
%%barnumbers 0
L: 1/8
M: 2/4
K: G
d d B d [I:setbarnb 1]| 
c ed2 | 
e d d A | 
G4 | 
d d/ B/ d d/ B/ | 
G BA2 | 
d E G F/ E/ | 
D4 | 
G B A z | 
d E G F/ E/ | 
D4 |]  



